X:1
T:Title
%%score { ( 1 3 4 ) | ( 2 5 ) }
L:1/8
Q:1/4=100
M:4/4
K:Ab
V:1 treble nm="Grand Piano"
V:3 treble 
V:4 treble 
V:2 treble 
V:5 treble 
V:1
 (3ccc d>c A2 B>A | [FA]4 [DF]4 | (3[CE][CE][CE] C>[CE] [EA]2 [Ec]>[Ec] | B6 z2 | %4
w: J.~Howard~Entwisle * * * * * * *||||
 (3ccc d>c A2 A>A | [FA]4 F4 | (3EEE C>E A2 G>G | [CA]6 z2 | [Ec]4 [EA]4 | [Ee]4 z4 | %10
w: ||||||
 (3BBB E>E d2 c>B | c4- [Ac]2 z2 | [Fd]4 z4 | [Ec]4[K:bass] z4[K:treble] | (3BBB e>d c2 B2 | %15
w: |||||
 [CA]6 z2 |] %16
w: |
V:2
 (3[A,E][A,E][A,E] [A,F]>[A,E][K:bass] [A,CE]2 [A,DE]>[A,CE] | [D,D]4 [D,A,]4 | %2
 (3[A,,A,][A,,A,][A,,A,] [A,,E,]>[A,,A,] [C,A,]2 [A,,A,]>[A,,A,] | [E,G,E]6 z2 | %4
 (3[A,E][A,E][A,E] [A,F]>[A,E] [A,CE]2 [A,C_G]>[A,CG] | [D,D]4 [D,A,D]4 | %6
 (3[E,A,C][E,A,C][E,A,C] [E,A,]>[E,A,C] [E,C]2 [E,B,]>[E,D] | [A,,E,]6 z2 | %8
 (3A,A,A, A,>A, [A,C]2 z2 | z4 E4 | %10
 (3[E,G,E][E,G,E][E,G,E] [E,G,]>[E,G,] [E,B,E]2 [E,A,E]>[E,G,E] | A,2 A,>A, A,2 _G2 | %12
 (3[D,A,]D,D, D,>D, [D,A,D]2[K:treble] F>F | (3[A,,A,]A,,A,, A,,>A,, A,,2 C2 | %14
 (3[E,G,E][E,G,E][E,G,E] [E,CE]>[E,B,E] [E,A,E]2 [E,G,D]2 | [A,,A,]6 z2 |] %16
V:3
 x8 | x8 | x8 | x8 | x8 | x8 | x8 | x8 | x8 | (3z CC z2 c4 | x8 | E4 z4 | (3z A,A, z2 F2 A>d | %13
 (3z[K:bass] A,A, z2 [A,CE]2[K:treble] A2 | x8 | x8 |] %16
V:4
 x8 | x8 | x8 | x8 | x8 | x8 | x8 | x8 | x8 | z2 C>C z4 | x8 | x8 | z2 A,>A, z4 | %13
 z2[K:bass] A,>A, z4[K:treble] | x8 | x8 |] %16
V:5
 x4[K:bass] x4 | x8 | x8 | x8 | x8 | x8 | x8 | x8 | x8 | (3[A,C]A,A, A,>A, A,2 z2 | x8 | x8 | %12
 x6[K:treble] x2 | x8 | x8 | x8 |] %16

